X:1
T:Oh Green Fields, Roxie
M:4/4
L:1/4
K:C
 E E E z| A, C z E-| E C C z| A, C z| E-| E3/4 C/4 D3/4 C/4 E z| A, C z E-|\
 E3/4 C/4 D3/4 C/4 C z| A, C z| C-| C/2 D D C/2 A,| C D D z| C D/2C/2D/2-C/2 C|\
 D E C| z| C/2 D D z/2 A,| C/2 D D z3/2| C/2 D C/2D/2 C/2 C| E D C z|\
